src/icons/small/CalendarPlus.svg

<svg width="20" height="20" viewBox="0 0 20 20" fill="none" xmlns="http://www.w3.org/2000/svg">
<rect x="2.75" y="4.75" width="14.5" height="12.5" rx="2.25" stroke="black" stroke-width="1.5"/>
<line x1="2" y1="7.58334" x2="18" y2="7.58334" stroke="black" stroke-width="1.5"/>
<path d="M14.75 3C14.75 2.58579 14.4142 2.25 14 2.25C13.5858 2.25 13.25 2.58579 13.25 3L14.75 3ZM13.25 3L13.25 4.33333L14.75 4.33333L14.75 3L13.25 3Z" fill="black"/>
<path d="M6.75 3C6.75 2.58579 6.41421 2.25 6 2.25C5.58579 2.25 5.25 2.58579 5.25 3L6.75 3ZM5.25 3L5.25 4.33333L6.75 4.33333L6.75 3L5.25 3Z" fill="black"/>
<path d="M10 10L10 15" stroke="black" stroke-width="1.5" stroke-linecap="round"/>
<path d="M12.5 12.5H7.5" stroke="black" stroke-width="1.5" stroke-linecap="round"/>
</svg>

<svg xmlns="http://www.w3.org/2000/svg" width="20" height="20" fill="none"><rect width="14.5" height="12.5" x="2.75" y="4.75" stroke="#000" stroke-width="1.5" rx="2.25"/><path stroke="#000" stroke-width="1.5" d="M2 7.583h16"/><path fill="#000" d="M14.75 3a.75.75 0 0 0-1.5 0zm-1.5 0v1.333h1.5V3zM6.75 3a.75.75 0 0 0-1.5 0zm-1.5 0v1.333h1.5V3z"/><path stroke="#000" stroke-linecap="round" stroke-width="1.5" d="M10 10v5M12.5 12.5h-5"/></svg>
